src/assets/icons/blue-tool.svg

<svg width="27" height="27" viewBox="0 0 27 27" fill="none" xmlns="http://www.w3.org/2000/svg">
    <path
        d="M26.3036 24.4603L24.4578 26.3062C24.2142 26.5484 23.8848 26.6843 23.5414 26.6843C23.1979 26.6843 22.8685 26.5484 22.6249 26.3062L7.18216 10.8889C6.75944 11.0113 6.3223 11.0769 5.88226 11.0839C5.05462 11.0833 4.23907 10.8851 3.50343 10.5058C2.76779 10.1266 2.13331 9.5772 1.65273 8.90336C1.17216 8.22951 0.859378 7.45067 0.740395 6.63159C0.621412 5.81252 0.699665 4.97687 0.968648 4.19413L4.27039 7.49599L4.95933 6.80702L6.80518 4.9611L7.49413 4.27212L4.19239 0.970254C4.9751 0.70126 5.81072 0.623003 6.62976 0.741991C7.44881 0.860979 8.22761 1.17377 8.90143 1.65437C9.57526 2.13496 10.1246 2.76947 10.5039 3.50514C10.8831 4.24081 11.0813 5.05639 11.0818 5.88406C11.0749 6.32411 11.0093 6.76128 10.8869 7.18401L26.3036 22.6274C26.5457 22.871 26.6816 23.2004 26.6816 23.5439C26.6816 23.8873 26.5457 24.2168 26.3036 24.4603ZM1.05964 22.6274C0.817534 22.871 0.681641 23.2004 0.681641 23.5439C0.681641 23.8873 0.817534 24.2168 1.05964 24.4603L2.90549 26.3062C3.14905 26.5484 3.47851 26.6843 3.82192 26.6843C4.16534 26.6843 4.4948 26.5484 4.73835 26.3062L11.8488 19.2085L8.17008 15.5297M24.0808 0.684265L18.8812 3.28416V5.88406L16.0605 8.70495L18.6602 11.3048L21.481 8.48396H24.0808L26.6806 3.28416L24.0808 0.684265Z"
        fill="#0064D9" />
</svg>

<?xml version="1.0" encoding="utf-8"?>
<!-- Generator: Adobe Illustrator 24.0.0, SVG Export Plug-In . SVG Version: 6.00 Build 0)  -->
<svg version="1.1" id="Capa_1" xmlns="http://www.w3.org/2000/svg" xmlns:xlink="http://www.w3.org/1999/xlink" x="0px" y="0px"
	 viewBox="0 0 27 27" style="enable-background:new 0 0 27 27;" xml:space="preserve">
<style type="text/css">
	.st0{fill:#0064D9;}
</style>
<path class="st0" d="M26.3,24.5l-1.8,1.8c-0.2,0.2-0.6,0.4-0.9,0.4s-0.7-0.1-0.9-0.4L7.2,10.9c-0.4,0.1-0.9,0.2-1.3,0.2
	c-0.8,0-1.6-0.2-2.4-0.6c-0.7-0.4-1.4-0.9-1.9-1.6C1.2,8.2,0.9,7.5,0.7,6.6C0.6,5.8,0.7,5,1,4.2l3.3,3.3L5,6.8L6.8,5l0.7-0.7L4.2,1
	C5,0.7,5.8,0.6,6.6,0.7s1.6,0.4,2.3,0.9s1.2,1.1,1.6,1.9c0.4,0.7,0.6,1.6,0.6,2.4c0,0.4-0.1,0.9-0.2,1.3l15.4,15.4
	c0.2,0.2,0.4,0.6,0.4,0.9C26.7,23.9,26.5,24.2,26.3,24.5z M1.1,22.6c-0.2,0.2-0.4,0.6-0.4,0.9s0.1,0.7,0.4,0.9l1.8,1.8
	c0.2,0.2,0.6,0.4,0.9,0.4s0.7-0.1,0.9-0.4l7.1-7.1l-3.7-3.7 M24.1,0.7l-5.2,2.6v2.6l-2.8,2.8l2.6,2.6l2.8-2.8h2.6l2.6-5.2L24.1,0.7z
	"/>
</svg>
